X: 1
T: Miss Jane Wedderburn's Reel
C: Robert Mackintosh
R: reel, strathspey
Z: 2010 John Chambers <jc:trillian.mit.edu>
M: C
L: 1/8
K: Am
e | c<Aa>^g aee=g | B<GTg>^f gddB | c<ATa>^g aeaf | ecdB cAA :|
c | AEcA ecae | ^fdgd ecBG | AEcA ecaf | edcB cAA ||
c | AEcA ecae | ^fdgd ecBG | ABcA Bcdf | edcB cAA |]
